Origami/24x24/apps/komorebi.svg

<svg width="24" height="24" version="1" xmlns="http://www.w3.org/2000/svg">
 <path d="m22 12v-7c0-0.554-0.446-1-1-1h-18c-0.554 0-1 0.446-1 1v14c0 0.554 0.446 1 1 1h11z" style="fill:#8847bd"/>
 <path d="m20 12.905538v-6.905538h-16v12h10.908706z" style="fill:#a675ce"/>
 <path d="m9.764261 8.5002022a0.74727215 0.78102555 0 0 0 -0.764261 0.780726v2.7192618 2.719263a0.74727215 0.78102555 0 0 0 1.120721 0.676022l2.252444-1.359632 2.253177-1.359632a0.74727215 0.78102555 0 0 0 0 -1.352802l-2.253177-1.3596307-2.252444-1.3596311a0.74727215 0.78102555 0 0 0 -0.35646 -0.103945z" style="opacity:.2"/>
 <path d="m9.764261 8.0002022a0.74727215 0.78102555 0 0 0 -0.764261 0.780726v2.7192618 2.719263a0.74727215 0.78102555 0 0 0 1.120721 0.676022l2.252444-1.359632 2.253177-1.359632a0.74727215 0.78102555 0 0 0 0 -1.352802l-2.253177-1.3596303-2.252444-1.3596315a0.74727215 0.78102555 0 0 0 -0.35646 -0.103945z" style="fill:#ffffff"/>
 <path d="m3 4c-0.554 0-1 0.446-1 1v0.5c0-0.554 0.446-1 1-1h18c0.554 0 1 0.446 1 1v-0.5c0-0.554-0.446-1-1-1h-18z" style="fill:#ffffff;opacity:.1"/>
 <path d="m22 12h-7c-0.5523 0-1 0.44772-1 1v7z" style="fill:#cfb2dd"/>
 <path d="m15 12c-0.5523 0-1 0.44772-1 1v0.5c0-0.5523 0.447715-1 1-1h6.5l0.5-0.5h-7z" style="fill:#ffffff;opacity:.2"/>
 <path d="m22 12-8 8h-11c-0.554 0-1-0.446-1-1v0.5c0 0.554 0.446 1 1 1h11l8-8v-0.5z" style="opacity:.2"/>
</svg>

<svg xmlns="http://www.w3.org/2000/svg" width="24" height="24" version="1">
 <path style="fill:#8847bd" d="M 22,12 22,5 C 22,4.446 21.554,4 21,4 L 3,4 C 2.446,4 2,4.446 2,5 l 0,14 c 0,0.554 0.446,1 1,1 l 11,0 z"/>
 <path style="fill:#a675ce" d="M 20,12.905538 20,6 4,6 4,18 14.908706,18 Z"/>
 <path style="opacity:0.2" d="M 9.764261,8.5002022 A 0.74727215,0.78102555 0 0 0 9,9.2809282 l 0,2.7192618 0,2.719263 a 0.74727215,0.78102555 0 0 0 1.120721,0.676022 l 2.252444,-1.359632 2.253177,-1.359632 a 0.74727215,0.78102555 0 0 0 0,-1.352802 L 12.373165,9.9637783 10.120721,8.6041472 a 0.74727215,0.78102555 0 0 0 -0.35646,-0.103945 z"/>
 <path style="fill:#ffffff" d="M 9.764261,8.0002022 A 0.74727215,0.78102555 0 0 0 9,8.7809282 l 0,2.7192618 0,2.719263 a 0.74727215,0.78102555 0 0 0 1.120721,0.676022 l 2.252444,-1.359632 2.253177,-1.359632 a 0.74727215,0.78102555 0 0 0 0,-1.352802 L 12.373165,9.4637787 10.120721,8.1041472 a 0.74727215,0.78102555 0 0 0 -0.35646,-0.103945 z"/>
 <path style="opacity:0.1;fill:#ffffff" d="M 3,4 C 2.446,4 2,4.446 2,5 l 0,0.5 c 0,-0.554 0.446,-1 1,-1 l 18,0 c 0.554,0 1,0.446 1,1 L 22,5 C 22,4.446 21.554,4 21,4 L 3,4 Z"/>
 <path style="fill:#cfb2dd" d="m 22,12 -7,0 c -0.5523,0 -1,0.44772 -1,1 l 0,7 z"/>
 <path style="opacity:0.2;fill:#ffffff" d="m 15,12 c -0.5523,0 -1,0.44772 -1,1 l 0,0.5 c 0,-0.5523 0.447715,-1 1,-1 l 6.5,0 0.5,-0.5 -7,0 z"/>
 <path style="opacity:0.2" d="M 22,12 14,20 3,20 C 2.446,20 2,19.554 2,19 l 0,0.5 c 0,0.554 0.446,1 1,1 l 11,0 8,-8 0,-0.5 z"/>
</svg>
